icons/Email-Star.svg

<svg width="24" height="24" viewBox="0 0 24 24" fill="none" xmlns="http://www.w3.org/2000/svg">
<g id="Email-Star">
<path id="Vector" d="M13 20H5.4C4.49908 19.9974 3.6358 19.6383 2.99875 19.0012C2.3617 18.3642 2.00264 17.5009 2 16.6V7.4C2.00264 6.49908 2.3617 5.6358 2.99875 4.99875C3.6358 4.3617 4.49908 4.00264 5.4 4H18.6C19.5009 4.00264 20.3642 4.3617 21.0012 4.99875C21.6383 5.6358 21.9974 6.49908 22 7.4V12" stroke="#00153F" stroke-width="1.5" stroke-linecap="round" stroke-linejoin="round"/>
<path id="Vector_2" d="M6 9L10.84 12.17C11.1787 12.4112 11.5842 12.5408 12 12.5408C12.4158 12.5408 12.8213 12.4112 13.16 12.17L18 9" stroke="#00153F" stroke-width="1.5" stroke-linecap="round" stroke-linejoin="round"/>
<path id="Vector_3" d="M19.41 14.33L19.91 15.33C19.9533 15.4168 20.0168 15.4921 20.095 15.5495C20.1733 15.6069 20.2641 15.6448 20.36 15.66L21.49 15.82C21.5959 15.8394 21.6947 15.887 21.7759 15.9578C21.8571 16.0285 21.9178 16.1198 21.9515 16.2221C21.9853 16.3244 21.9909 16.4339 21.9677 16.5391C21.9446 16.6443 21.8935 16.7413 21.82 16.82L21 17.61C20.9323 17.679 20.8817 17.7628 20.8522 17.8549C20.8226 17.9469 20.815 18.0445 20.83 18.14L21 19.3C21.021 19.4096 21.0104 19.523 20.9696 19.6269C20.9287 19.7308 20.8592 19.8209 20.7692 19.8869C20.6791 19.9529 20.5722 19.992 20.4608 19.9996C20.3494 20.0072 20.2382 19.9831 20.14 19.93L19.14 19.4C19.0552 19.3553 18.9608 19.332 18.865 19.332C18.7691 19.332 18.6748 19.3553 18.59 19.4L17.59 19.93C17.4918 19.9831 17.3805 20.0072 17.2691 19.9996C17.1578 19.992 17.0508 19.9529 16.9608 19.8869C16.8707 19.8209 16.8012 19.7308 16.7604 19.6269C16.7195 19.523 16.709 19.4096 16.73 19.3L16.92 18.18C16.9349 18.0845 16.9273 17.9869 16.8978 17.8949C16.8683 17.8028 16.8177 17.719 16.75 17.65L15.93 16.86C15.8564 16.7813 15.8054 16.6843 15.7822 16.5791C15.7591 16.4739 15.7647 16.3644 15.7984 16.2621C15.8322 16.1598 15.8928 16.0685 15.974 15.9978C16.0553 15.927 16.154 15.8794 16.26 15.86L17.39 15.7C17.4858 15.6848 17.5767 15.6469 17.6549 15.5895C17.7332 15.5321 17.7966 15.4568 17.84 15.37L18.34 14.37C18.3863 14.2692 18.4597 14.1832 18.552 14.1216C18.6443 14.0601 18.7518 14.0253 18.8627 14.0211C18.9735 14.017 19.0834 14.0436 19.18 14.0982C19.2766 14.1527 19.3562 14.2329 19.41 14.33Z" stroke="#00153F" stroke-width="1.5" stroke-miterlimit="10"/>
</g>
</svg>

<svg xmlns="http://www.w3.org/2000/svg" fill="none" viewBox="0 0 24 24"><g stroke="currentColor" stroke-width="1.5"><path stroke-linecap="round" stroke-linejoin="round" d="M13 20H5.4A3.41 3.41 0 0 1 2 16.6V7.4A3.41 3.41 0 0 1 5.4 4h13.2A3.41 3.41 0 0 1 22 7.4V12"/><path stroke-linecap="round" stroke-linejoin="round" d="m6 9 4.84 3.17a2 2 0 0 0 2.32 0L18 9"/><path stroke-miterlimit="10" d="m19.41 14.33.5 1a.61.61 0 0 0 .45.33l1.13.16a.6.6 0 0 1 .33 1l-.82.79a.62.62 0 0 0-.17.53L21 19.3a.59.59 0 0 1-.86.63l-1-.53a.59.59 0 0 0-.55 0l-1 .53a.59.59 0 0 1-.86-.63l.19-1.12a.62.62 0 0 0-.17-.53l-.82-.79a.6.6 0 0 1 .33-1l1.13-.16a.61.61 0 0 0 .45-.33l.5-1a.6.6 0 0 1 1.07-.04Z"/></g></svg>
